; generated by Slic3r 1.2.0 on 2014-09-13 at 09:08:16

; external perimeters extrusion width = 0.35mm
; perimeters extrusion width = 0.44mm
; infill extrusion width = 0.44mm
; solid infill extrusion width = 0.44mm
; top infill extrusion width = 0.44mm
; support material extrusion width = 0.35mm

G21 ; set units to millimeters
M107
G28 ; home all axes
M140 S65 ; start heating bed
G92 E0 ; reset extruder
G1 X0 Y-100 F4000 ; move half way along the front edge
G1 Z0.7 ; move nozzle close to bed
M104 S165; start heating extruder
M190 S65 ; wait for bed to reach temp
M109 S165 ; wait for extruder to reach temp
G4 P20000 ; wait another 20 seconds for nozzle length to stabilise etc
G1 E10 F100; extrude 10 mm of filament
G1 X10 F12000 ; move 50 mm towards the origin as fast as firmware permits
G10 ; Retract
G1 Z1 ; lift nozzle to 1 mm ready to begin main sequence
G92 E0 ; reset extruder
G90 ; use absolute coordinates
G92 E0
M82 ; use absolute distances for extrusion
G1 F1800.000 E-1.50000
G92 E0
G1 Z0.250 F9000.000
G1 X21.246 Y0.000 F9000.000
G1 E1.50000 F1800.000
M204 S9000
G1 X21.246 Y36.000 E1.84755 F1800.000
G1 X20.850 Y38.000 E1.86723
G1 X19.721 Y39.698 E1.88692
G1 X18.031 Y40.837 E1.90660
G1 X16.000 Y41.246 E1.92660
G1 X-16.000 Y41.246 E2.23553
G1 X-18.000 Y40.850 E2.25521
G1 X-19.698 Y39.721 E2.27490
G1 X-20.837 Y38.031 E2.29458
G1 X-21.246 Y36.000 E2.31458
G1 X-21.246 Y-20.125 E2.85641
G1 X-20.850 Y-22.125 E2.87610
G1 X-19.710 Y-23.835 E2.89594
G1 X-3.835 Y-39.710 E3.11268
G1 X-2.140 Y-40.844 E3.13236
G1 X-0.125 Y-41.246 E3.15220
G1 X16.000 Y-41.246 E3.30788
G1 X18.000 Y-40.850 E3.32756
G1 X19.698 Y-39.721 E3.34724 F1800.000
G1 X20.837 Y-38.031 E3.36693
G1 X21.246 Y-36.000 E3.38692
G1 X21.246 Y-0.052 E3.73397
M204 S3000
G1 F1800.000 E2.23397
G92 E0
G1 X8.553 Y12.640 F9000.000
G1 E1.50000 F1800.000
M204 S9000
G1 X15.850 Y19.937 E1.59962 F1260.000
G1 X15.850 Y35.850 E1.75325 F1260.000
G1 X-15.850 Y35.850 E2.05928
G1 X-15.850 Y4.150 E2.36532
G1 X0.063 Y4.150 E2.51894
G1 X8.516 Y12.603 E2.63435
M204 S3000
G1 F1800.000 E1.13435
G92 E0
G1 X15.603 Y20.185 F9000.000
G1 X15.604 Y20.185 F9000.000
G1 E1.50000 F1800.000
M204 S9000
G1 X15.604 Y35.604 E1.64886 F1800.000
G1 X-15.604 Y35.604 E1.95014
G1 X-15.604 Y4.396 E2.25141
G1 X-0.039 Y4.396 E2.40168 F1800.000
G1 X15.604 Y20.039 E2.61525
G1 X15.604 Y20.132 E2.61614
M204 S3000
G1 F1800.000 E1.11614
G92 E0
G1 X-3.301 Y4.643 F9000.000
G1 E1.50000 F1800.000
M204 S9000
G1 X-0.141 Y4.643 E1.53051 F1800.000
G1 X15.357 Y20.141 E1.74211
G1 X15.357 Y35.357 E1.88901 F1800.000
G1 X-15.357 Y35.357 E2.18553
G1 X-15.357 Y4.643 E2.48205
G1 X-3.354 Y4.643 E2.59793
M204 S3000
G1 F1800.000 E1.09793
G92 E0
G1 X5.824 Y24.232 F9000.000
G1 E1.50000 F1800.000
M204 S9000
G1 X6.752 Y23.832 E1.50975 F1260.000
G1 X7.747 Y23.656 E1.51951
G1 X8.756 Y23.715 E1.52926
G1 X9.723 Y24.005 E1.53901 F1260.000
G1 X10.598 Y24.510 E1.54877
G1 X11.333 Y25.203 E1.55852
G1 X11.888 Y26.047 E1.56827
G1 X12.234 Y26.997 E1.57802
G1 X12.351 Y28.000 E1.58778
G1 X12.234 Y29.003 E1.59753
G1 X11.888 Y29.953 E1.60728
G1 X11.333 Y30.797 E1.61704
G1 X10.598 Y31.490 E1.62679
G1 X9.723 Y31.995 E1.63654
G1 X8.756 Y32.285 E1.64630
G1 X7.747 Y32.344 E1.65605
G1 X6.752 Y32.168 E1.66580
G1 X5.824 Y31.768 E1.67555
G1 X5.014 Y31.165 E1.68531
G1 X4.365 Y30.391 E1.69506
G1 X3.911 Y29.488 E1.70481
G1 X3.678 Y28.505 E1.71457
G1 X3.678 Y27.495 E1.72432
G1 X3.911 Y26.512 E1.73407
G1 X4.365 Y25.609 E1.74383
G1 X5.014 Y24.835 E1.75358
G1 X5.782 Y24.263 E1.76282
M204 S3000
G1 F1800.000 E0.26282
G92 E0
G1 X8.959 Y23.430 F9000.000
G1 X8.935 Y23.512 F9000.000
G1 E1.50000 F1800.000
M204 S9000
G1 X9.822 Y23.777 E1.50894 F1800.000
G1 X10.746 Y24.311 E1.51925
G1 X11.523 Y25.044 E1.52956
G1 X12.110 Y25.936 E1.53986
G1 X12.475 Y26.939 E1.55017
G1 X12.599 Y28.000 E1.56048
G1 X12.475 Y29.061 E1.57079
G1 X12.110 Y30.064 E1.58110
G1 X11.523 Y30.956 E1.59141
G1 X10.746 Y31.689 E1.60172
G1 X9.822 Y32.223 E1.61203
G1 X8.799 Y32.529 E1.62234
G1 X7.733 Y32.591 E1.63265
G1 X6.681 Y32.406 E1.64295
G1 X5.700 Y31.983 E1.65326
G1 X4.844 Y31.345 E1.66357
G1 X4.158 Y30.527 E1.67388
G1 X3.678 Y29.573 E1.68419
G1 X3.432 Y28.534 E1.69450
G1 X3.432 Y27.466 E1.70481
G1 X3.678 Y26.427 E1.71512
G1 X4.158 Y25.473 E1.72543
G1 X4.844 Y24.655 E1.73574
G1 X5.700 Y24.017 E1.74604
G1 X6.681 Y23.594 E1.75635
G1 X7.733 Y23.409 E1.76666 F1800.000
G1 X8.799 Y23.471 E1.77697
G1 X8.884 Y23.497 E1.77784
M204 S3000
G1 X8.955 Y23.261 F9000.000
M204 S9000
G1 X9.920 Y23.549 E1.78756 F1800.000
G1 X10.895 Y24.112 E1.79842
G1 X11.713 Y24.884 E1.80929
G1 X12.332 Y25.825 E1.82015
G1 X12.716 Y26.882 E1.83102
G1 X12.847 Y28.000 E1.84188
G1 X12.716 Y29.118 E1.85275
G1 X12.332 Y30.175 E1.86361
G1 X11.713 Y31.116 E1.87448
G1 X10.895 Y31.888 E1.88534
G1 X9.920 Y32.451 E1.89621
G1 X8.842 Y32.773 E1.90707
G1 X7.718 Y32.839 E1.91794
G1 X6.610 Y32.643 E1.92880
G1 X5.576 Y32.198 E1.93967
G1 X4.674 Y31.526 E1.95053
G1 X3.950 Y30.663 E1.96140
G1 X3.445 Y29.658 E1.97226
G1 X3.186 Y28.563 E1.98313
G1 X3.186 Y27.437 E1.99399
G1 X3.445 Y26.342 E2.00486
G1 X3.950 Y25.336 E2.01572
G1 X4.674 Y24.474 E2.02659
G1 X5.576 Y23.802 E2.03745
G1 X6.610 Y23.357 E2.04832
G1 X7.718 Y23.161 E2.05918
G1 X8.842 Y23.227 E2.07005
G1 X8.905 Y23.245 E2.07068 F1800.000
M204 S3000
G1 X10.022 Y23.425 F9000.000
M204 S9000
G1 X-8.602 Y4.801 E2.32495 F2100.000
G1 X-8.951 Y4.801 E2.32832
G1 X9.509 Y23.261 E2.58034
G1 X9.011 Y23.112 E2.58536
G1 X-9.299 Y4.801 E2.83535
G1 X-9.648 Y4.801 E2.83872
G1 X8.605 Y23.054 E3.08792
G1 X8.234 Y23.032 E3.09150
G1 X-9.997 Y4.801 E3.34041
G1 X-10.345 Y4.801 E3.34377
G1 X7.864 Y23.011 E3.59239
G1 X7.537 Y23.032 E3.59555
G1 X-10.694 Y4.801 E3.84446
G1 X-11.042 Y4.801 E3.84782
G1 X7.241 Y23.084 E4.09744
G1 X6.944 Y23.137 E4.10035
G1 X-11.391 Y4.801 E4.35068
G1 X-11.740 Y4.801 E4.35404
G1 X6.648 Y23.189 E4.60509
G1 X6.389 Y23.279 E4.60773
G1 X-12.088 Y4.801 E4.86000
G1 X-12.437 Y4.801 E4.86337
G1 X6.146 Y23.384 E5.11708
G1 X5.902 Y23.489 E5.11964
G1 X-12.786 Y4.801 E5.37478
G1 X-13.134 Y4.801 E5.37815
G1 X5.659 Y23.594 E5.63473
G1 X5.430 Y23.714 E5.63722
G1 X-13.483 Y4.801 E5.89544
G1 X-13.831 Y4.801 E5.89880
G1 X5.230 Y23.863 E6.15905
G1 X5.030 Y24.011 E6.16145
G1 X-14.180 Y4.801 E6.42373
G1 X-14.529 Y4.801 E6.42709
G1 X4.830 Y24.160 E6.69140
G1 X4.630 Y24.309 E6.69380
G1 X-14.877 Y4.801 E6.96014
G1 X-15.192 Y4.835 E6.96320
G1 X4.458 Y24.485 E7.23148
G1 X4.299 Y24.675 E7.23387
G1 X-15.199 Y5.177 E7.50007
G1 X-15.199 Y5.526 E7.50344
G1 X4.140 Y24.864 E7.76746
G1 X3.981 Y25.054 E7.76985
G1 X-15.199 Y5.874 E8.03171
G1 X-15.199 Y6.223 E8.03507
G1 X3.822 Y25.243 E8.29475
G1 X3.704 Y25.474 E8.29726
G1 X-15.199 Y6.572 E8.55533
G1 X-15.199 Y6.920 E8.55870
G1 X3.587 Y25.706 E8.81518
G1 X3.471 Y25.938 E8.81769
G1 X-15.199 Y7.269 E9.07258
G1 X-15.199 Y7.618 E9.07595
G1 X3.354 Y26.170 E9.32925
G1 X3.262 Y26.427 E9.33188
G1 X-15.199 Y7.966 E9.58393
G1 X-15.199 Y8.315 E9.58729
G1 X3.195 Y26.709 E9.83843
G1 X3.129 Y26.991 E9.84122
G1 X-15.199 Y8.663 E10.09144
G1 X-15.199 Y9.012 E10.09481
G1 X3.062 Y27.273 E10.34412
G1 X3.027 Y27.586 E10.34717
G1 X-15.199 Y9.361 E10.59601
G1 X-15.199 Y9.709 E10.59937
G1 X3.027 Y27.935 E10.84821
G1 X3.027 Y28.284 E10.85157
G1 X-15.199 Y10.058 E11.10041
G1 X-15.199 Y10.406 E11.10378
G1 X3.043 Y28.648 E11.35283
G1 X3.151 Y29.105 E11.35736
G1 X-15.199 Y10.755 E11.60790
G1 X-15.199 Y11.104 E11.61126
G1 X3.260 Y29.562 E11.86327
M204 S3000
G1 X3.531 Y30.182 F9000.000
M204 S9000
G1 X-15.199 Y11.452 E12.11899 F2100.000
G1 X-15.199 Y11.801 E12.12236
G1 X4.158 Y31.158 E12.38664
M204 S3000
G1 X4.869 Y31.869 F9000.000
M204 S9000
G1 X8.199 Y35.199 E12.43210 F2100.000
G1 X8.548 Y35.199 E12.43547
G1 X5.828 Y32.479 E12.47260
M204 S3000
G1 X6.441 Y32.743 F9000.000
M204 S9000
G1 X8.896 Y35.199 E12.50613 F2100.000
G1 X9.245 Y35.199 E12.50949
G1 X6.902 Y32.856 E12.54147
G1 X7.325 Y32.931 E12.54562
G1 X9.594 Y35.199 E12.57659
G1 X9.942 Y35.199 E12.57995
G1 X7.740 Y32.996 E12.61002
G1 X8.069 Y32.977 E12.61321
G1 X10.291 Y35.199 E12.64354
G1 X10.639 Y35.199 E12.64690
G1 X8.399 Y32.958 E12.67749
G1 X8.728 Y32.939 E12.68068
G1 X10.988 Y35.199 E12.71153
G1 X11.337 Y35.199 E12.71490
G1 X9.023 Y32.885 E12.74649
G1 X9.291 Y32.804 E12.74919
G1 X11.685 Y35.199 E12.78188
G1 X12.034 Y35.199 E12.78525
G1 X9.559 Y32.724 E12.81903
G1 X9.828 Y32.644 E12.82174
G1 X12.382 Y35.199 E12.85662
G1 X12.731 Y35.199 E12.85999
G1 X10.076 Y32.544 E12.89624
G1 X10.297 Y32.416 E12.89870
G1 X13.080 Y35.199 E12.93669
G1 X13.428 Y35.199 E12.94006
G1 X10.518 Y32.288 E12.97979
G1 X10.739 Y32.161 E12.98226
G1 X13.777 Y35.199 E13.02373
G1 X14.126 Y35.199 E13.02710
G1 X10.960 Y32.033 E13.07032
G1 X11.145 Y31.870 E13.07270
G1 X14.474 Y35.199 E13.11816
G1 X14.823 Y35.199 E13.12152
G1 X11.324 Y31.700 E13.16928
G1 X11.504 Y31.531 E13.17167
G1 X15.165 Y35.192 E13.22165
G1 X15.199 Y34.877 E13.22471
G1 X11.683 Y31.362 E13.27271
G1 X11.856 Y31.186 E13.27509
G1 X15.199 Y34.529 E13.32072
G1 X15.199 Y34.180 E13.32409
G1 X11.995 Y30.976 E13.36783
G1 X12.133 Y30.766 E13.37026
G1 X15.199 Y33.831 E13.41212
G1 X15.199 Y33.483 E13.41548
G1 X12.271 Y30.555 E13.45545
G1 X12.410 Y30.345 E13.45788
G1 X15.199 Y33.134 E13.49596
G1 X15.199 Y32.786 E13.49932
G1 X12.524 Y30.111 E13.53584
G1 X12.617 Y29.855 E13.53847
G1 X15.199 Y32.437 E13.57372
G1 X15.199 Y32.088 E13.57709
G1 X12.710 Y29.600 E13.61107
G1 X12.803 Y29.344 E13.61369
G1 X15.199 Y31.740 E13.64640
G1 X15.199 Y31.391 E13.64977
G1 X12.881 Y29.074 E13.68141
G1 X12.918 Y28.762 E13.68444
G1 X15.199 Y31.042 E13.71558
G1 X15.199 Y30.694 E13.71895
G1 X12.954 Y28.449 E13.74959
G1 X12.991 Y28.137 E13.75263
G1 X15.199 Y30.345 E13.78277
G1 X15.199 Y29.997 E13.78614
G1 X12.981 Y27.779 E13.81642
G1 X12.935 Y27.384 E13.82026
G1 X15.199 Y29.648 E13.85117
G1 X15.199 Y29.299 E13.85453
G1 X12.889 Y26.989 E13.88607
G1 X12.745 Y26.497 E13.89102
G1 X15.199 Y28.951 E13.92452
G1 X15.199 Y28.602 E13.92789
G1 X12.546 Y25.949 E13.96411
M204 S3000
G1 X12.044 Y25.099 F9000.000
M204 S9000
G1 X15.199 Y28.254 E14.00719 F2100.000
G1 X15.199 Y27.905 E14.01055
G1 X-7.905 Y4.801 E14.32598
G1 X-7.556 Y4.801 E14.32935
G1 X15.199 Y27.556 E14.64002
G1 X15.199 Y27.208 E14.64339
G1 X-7.208 Y4.801 E14.94930
G1 X-6.859 Y4.801 E14.95267
G1 X15.199 Y26.859 E15.25382
G1 X15.199 Y26.510 E15.25719
G1 X-6.510 Y4.801 E15.55358
G1 X-6.162 Y4.801 E15.55695
G1 X15.199 Y26.162 E15.84858
G1 X15.199 Y25.813 E15.85195
G1 X-5.813 Y4.801 E16.13882
G1 X-5.465 Y4.801 E16.14219
G1 X15.199 Y25.465 E16.42430
G1 X15.199 Y25.116 E16.42767
G1 X-5.116 Y4.801 E16.70502
G1 X-4.767 Y4.801 E16.70839
G1 X15.199 Y24.767 E16.98098
G1 X15.199 Y24.419 E16.98435
G1 X-4.419 Y4.801 E17.25218
G1 X-4.070 Y4.801 E17.25555
G1 X15.199 Y24.070 E17.51863
G1 X15.199 Y23.721 E17.52199
G1 X-3.721 Y4.801 E17.78031
G1 X-3.373 Y4.801 E17.78367
G1 X15.199 Y23.373 E18.03723
G1 X15.199 Y23.024 E18.04059
G1 X-3.024 Y4.801 E18.28939
G1 X-2.676 Y4.801 E18.29276
G1 X15.199 Y22.676 E18.53679
G1 X15.199 Y22.327 E18.54016
G1 X-2.327 Y4.801 E18.77944
G1 X-1.978 Y4.801 E18.78280
G1 X15.199 Y21.978 E19.01732
G1 X15.199 Y21.630 E19.02069
G1 X-1.630 Y4.801 E19.25044
G1 X-1.281 Y4.801 E19.25381
G1 X15.199 Y21.281 E19.47881
G1 X15.199 Y20.932 E19.48217
G1 X-0.932 Y4.801 E19.70241
G1 X-0.584 Y4.801 E19.70578
G1 X15.199 Y20.584 E19.92125
G1 X15.199 Y20.235 E19.92462
G1 X-0.235 Y4.801 E20.13534
M204 S3000
G1 F1800.000 E18.63534
G92 E0
G1 X-8.254 Y4.801 F9000.000
G1 E1.50000 F1800.000
M204 S9000
G1 X10.846 Y23.901 E1.76077 F2100.000
M204 S3000
G1 F1800.000 E0.26077
G92 E0
G1 X-15.159 Y35.199 F9000.000
G1 E1.50000 F1800.000
M204 S9000
G1 X-15.199 Y35.159 E1.50055 F2100.000
G1 X-15.199 Y34.810 E1.50391
G1 X-14.810 Y35.199 E1.50922
G1 X-14.461 Y35.199 E1.51258
G1 X-15.199 Y34.461 E1.52265
G1 X-15.199 Y34.113 E1.52601
G1 X-14.113 Y35.199 E1.54084
G1 X-13.764 Y35.199 E1.54421
G1 X-15.199 Y33.764 E1.56379
G1 X-15.199 Y33.416 E1.56716
G1 X-13.416 Y35.199 E1.59150
G1 X-13.067 Y35.199 E1.59487
G1 X-15.199 Y33.067 E1.62397
G1 X-15.199 Y32.718 E1.62734
G1 X-12.718 Y35.199 E1.66120
G1 X-12.370 Y35.199 E1.66457
G1 X-15.199 Y32.370 E1.70319
G1 X-15.199 Y32.021 E1.70656
G1 X-12.021 Y35.199 E1.74994
G1 X-11.672 Y35.199 E1.75331
G1 X-15.199 Y31.672 E1.80145
G1 X-15.199 Y31.324 E1.80481
G1 X-11.324 Y35.199 E1.85772
G1 X-10.975 Y35.199 E1.86108
G1 X-15.199 Y30.975 E1.91875
G1 X-15.199 Y30.627 E1.92211
G1 X-10.627 Y35.199 E1.98454
G1 X-10.278 Y35.199 E1.98790
G1 X-15.199 Y30.278 E2.05508
G1 X-15.199 Y29.929 E2.05845
G1 X-9.929 Y35.199 E2.13039
G1 X-9.581 Y35.199 E2.13376
G1 X-15.199 Y29.581 E2.21046
G1 X-15.199 Y29.232 E2.21382
G1 X-9.232 Y35.199 E2.29529
G1 X-8.884 Y35.199 E2.29865
G1 X-15.199 Y28.884 E2.38487
G1 X-15.199 Y28.535 E2.38824
G1 X-8.535 Y35.199 E2.47922
G1 X-8.186 Y35.199 E2.48259
G1 X-15.199 Y28.186 E2.57833
G1 X-15.199 Y27.838 E2.58169
G1 X-7.838 Y35.199 E2.68219
G1 X-7.489 Y35.199 E2.68556
G1 X-15.199 Y27.489 E2.79082
G1 X-15.199 Y27.140 E2.79418
G1 X-7.140 Y35.199 E2.90420
G1 X-6.792 Y35.199 E2.90757
G1 X-15.199 Y26.792 E3.02235
G1 X-15.199 Y26.443 E3.02572
G1 X-6.443 Y35.199 E3.14525
G1 X-6.095 Y35.199 E3.14862
G1 X-15.199 Y26.095 E3.27292
G1 X-15.199 Y25.746 E3.27629
G1 X-5.746 Y35.199 E3.40534
G1 X-5.397 Y35.199 E3.40871
G1 X-15.199 Y25.397 E3.54253
G1 X-15.199 Y25.049 E3.54589
G1 X-5.049 Y35.199 E3.68447
G1 X-4.700 Y35.199 E3.68784
G1 X-15.199 Y24.700 E3.83118
G1 X-15.199 Y24.351 E3.83454
G1 X-4.351 Y35.199 E3.98264
G1 X-4.003 Y35.199 E3.98601
G1 X-15.199 Y24.003 E4.13886
G1 X-15.199 Y23.654 E4.14223
G1 X-3.654 Y35.199 E4.29985
G1 X-3.306 Y35.199 E4.30321
G1 X-15.199 Y23.306 E4.46559
G1 X-15.199 Y22.957 E4.46896
G1 X-2.957 Y35.199 E4.63609
G1 X-2.608 Y35.199 E4.63946
G1 X-15.199 Y22.608 E4.81135
G1 X-15.199 Y22.260 E4.81472
G1 X-2.260 Y35.199 E4.99138
G1 X-1.911 Y35.199 E4.99474
G1 X-15.199 Y21.911 E5.17616
G1 X-15.199 Y21.562 E5.17952
G1 X-1.562 Y35.199 E5.36570
G1 X-1.214 Y35.199 E5.36907
G1 X-15.199 Y21.214 E5.56000
G1 X-15.199 Y20.865 E5.56337
G1 X-0.865 Y35.199 E5.75906
G1 X-0.517 Y35.199 E5.76243
G1 X-15.199 Y20.517 E5.96288
G1 X-15.199 Y20.168 E5.96625
G1 X-0.168 Y35.199 E6.17146
G1 X0.181 Y35.199 E6.17483
G1 X-15.199 Y19.819 E6.38480
G1 X-15.199 Y19.471 E6.38817
G1 X0.529 Y35.199 E6.60290
G1 X0.878 Y35.199 E6.60627
G1 X-15.199 Y19.122 E6.82576
G1 X-15.199 Y18.773 E6.82913
G1 X1.227 Y35.199 E7.05338
G1 X1.575 Y35.199 E7.05675
G1 X-15.199 Y18.425 E7.28576
G1 X-15.199 Y18.076 E7.28913
G1 X1.924 Y35.199 E7.52290
G1 X2.272 Y35.199 E7.52627
G1 X-15.199 Y17.728 E7.76480
G1 X-15.199 Y17.379 E7.76817
G1 X2.621 Y35.199 E8.01146
G1 X2.970 Y35.199 E8.01482
G1 X-15.199 Y17.030 E8.26288
G1 X-15.199 Y16.682 E8.26624
G1 X3.318 Y35.199 E8.51905
G1 X3.667 Y35.199 E8.52242
G1 X-15.199 Y16.333 E8.77999
G1 X-15.199 Y15.984 E8.78336
G1 X4.016 Y35.199 E9.04569
G1 X4.364 Y35.199 E9.04905
G1 X-15.199 Y15.636 E9.31615
G1 X-15.199 Y15.287 E9.31951
G1 X4.713 Y35.199 E9.59136
G1 X5.061 Y35.199 E9.59473
G1 X-15.199 Y14.939 E9.87134
G1 X-15.199 Y14.590 E9.87471
G1 X5.410 Y35.199 E10.15608
G1 X5.759 Y35.199 E10.15944
G1 X-15.199 Y14.241 E10.44557
G1 X-15.199 Y13.893 E10.44894
G1 X6.107 Y35.199 E10.73983
G1 X6.456 Y35.199 E10.74319
G1 X-15.199 Y13.544 E11.03884
G1 X-15.199 Y13.195 E11.04221
G1 X6.805 Y35.199 E11.34262
G1 X7.153 Y35.199 E11.34598
G1 X-15.199 Y12.847 E11.65115
G1 X-15.199 Y12.498 E11.65452
G1 X7.502 Y35.199 E11.96445
G1 X7.850 Y35.199 E11.96781
G1 X-15.199 Y12.150 E12.28250
M204 S3000
G1 F1800.000 E10.78250
G92 E0
G1 X-15.199 Y-4.150 F9000.000
G1 E1.50000 F1800.000
M204 S9000
G1 X-15.850 Y-4.150 E1.50629 F1260.000
G1 X-15.850 Y-20.063 E1.65991
G1 X-0.063 Y-35.850 E1.87545
G1 X15.850 Y-35.850 E2.02908
G1 X15.850 Y-4.150 E2.33511
G1 X-15.146 Y-4.150 E2.63435 F1260.000
M204 S3000
G1 F1800.000 E1.13435
G92 E0
G1 X15.850 Y-4.500 F9000.000
G1 X15.604 Y-4.500 F9000.000
G1 E1.50000 F1800.000
M204 S9000
G1 X15.604 Y-4.396 E1.50100 F1800.000
G1 X-15.604 Y-4.396 E1.80228
G1 X-15.604 Y-19.961 E1.95254
G1 X0.039 Y-35.604 E2.16611
G1 X15.604 Y-35.604 E2.31637 F1800.000
G1 X15.604 Y-4.553 E2.61614
M204 S3000
G1 F1800.000 E1.11614
