; generated by Slic3r 1.2.0 on 2014-09-09 at 19:45:32

; external perimeters extrusion width = 0.35mm
; perimeters extrusion width = 0.44mm
; infill extrusion width = 0.44mm
; solid infill extrusion width = 0.44mm
; top infill extrusion width = 0.44mm
; support material extrusion width = 0.35mm

G21 ; set units to millimeters
M107
G28 ; home all axes
M140 S70 ; start heating bed
G92 E0 ; reset extruder
G1 X0 Y-100 F4000 ; move half way along the front edge
G1 Z0.7 ; move nozzle close to bed
M104 S175; start heating extruder
M190 S70 ; wait for bed to reach temp
M109 S175 ; wait for extruder to reach temp
G4 P20000 ; wait another 20 seconds for nozzle length to stabilise etc
G1 E10 F100; extrude 10 mm of filament
G1 X10 F12000 ; move 50 mm towards the origin as fast as firmware permits
G10 ; Retract
G1 Z1 ; lift nozzle to 1 mm ready to begin main sequence
G92 E0 ; reset extruder
G90 ; use absolute coordinates
G92 E0
M82 ; use absolute distances for extrusion
G1 F1800.000 E-1.50000
G92 E0
G1 Z0.250 F9000.000
G1 X1.232 Y21.475 F9000.000
G1 E1.50000 F1800.000
M204 S9000
G1 X-3.500 Y21.746 E1.54575 F1800.000
G1 X-27.500 Y21.746 E1.77745
G1 X-29.500 Y21.350 E1.79714
G1 X-31.198 Y20.221 E1.81682
G1 X-32.337 Y18.531 E1.83650
G1 X-32.746 Y16.500 E1.85650
G1 X-32.746 Y-16.500 E2.17509
G1 X-32.350 Y-18.500 E2.19477
G1 X-31.221 Y-20.198 E2.21445
G1 X-29.531 Y-21.337 E2.23414
G1 X-27.500 Y-21.746 E2.25414
G1 X-3.198 Y-21.738 E2.48875
G1 X23.014 Y-20.221 E2.74223 F1800.000
G1 X23.990 Y-20.125 E2.75169
G1 X24.998 Y-19.924 E2.76162
G1 X25.936 Y-19.640 E2.77109
G1 X26.887 Y-19.246 E2.78101
G1 X27.751 Y-18.784 E2.79048
G1 X28.606 Y-18.213 E2.80041
G1 X29.364 Y-17.591 E2.80987
G1 X30.091 Y-16.864 E2.81979
G1 X30.713 Y-16.106 E2.82926
G1 X31.284 Y-15.251 E2.83919
G1 X31.746 Y-14.387 E2.84865
G1 X32.140 Y-13.436 E2.85858
G1 X32.424 Y-12.498 E2.86804
G1 X32.625 Y-11.490 E2.87797
G1 X32.718 Y-10.541 E2.88717
G1 X32.746 Y-10.000 E2.89240
G1 X32.721 Y10.514 E3.09045
G1 X32.625 Y11.490 E3.09991
G1 X32.424 Y12.498 E3.10984
G1 X32.140 Y13.436 E3.11930
G1 X31.746 Y14.387 E3.12923
G1 X31.284 Y15.251 E3.13870
G1 X30.713 Y16.106 E3.14863
G1 X30.091 Y16.864 E3.15809
G1 X29.364 Y17.591 E3.16801
G1 X28.606 Y18.213 E3.17748
G1 X27.751 Y18.784 E3.18741
G1 X26.887 Y19.246 E3.19687
G1 X25.936 Y19.640 E3.20680
G1 X24.998 Y19.924 E3.21626
G1 X23.990 Y20.125 E3.22619
G1 X22.802 Y20.238 E3.23771
G1 X1.284 Y21.472 E3.44579
M204 S3000
G1 F1800.000 E1.94579
G92 E0
G1 X-9.481 Y3.143 F9000.000
G1 E1.50000 F1800.000
M204 S9000
G1 X-21.523 Y3.143 E1.61625 F1800.000
G1 X-21.523 Y-3.143 E1.67693
G1 X-9.534 Y-3.143 E1.79268
M204 S3000
G1 X-9.728 Y-2.896 F9000.000
M204 S9000
G1 X-9.728 Y2.896 E1.84860 F1800.000
G1 X-21.277 Y2.896 E1.96010
G1 X-21.277 Y-2.896 E2.01603
G1 X-9.780 Y-2.896 E2.12702 F1800.000
M204 S3000
G1 X-9.974 Y-2.650 F9000.000
M204 S9000
G1 X-9.974 Y2.650 E2.17818 F1260.000
G1 X-21.030 Y2.650 E2.28492 F1260.000
G1 X-21.030 Y-2.650 E2.33609
G1 X-10.026 Y-2.650 E2.44233
M204 S3000
G1 F1800.000 E0.94233
G92 E0
G1 X-9.846 Y2.976 F9000.000
G1 X0.435 Y8.372 F9000.000
G1 E1.50000 F1800.000
M204 S9000
G1 X0.508 Y8.235 E1.50150 F1800.000
G1 X1.879 Y7.288 E1.51758
G1 X2.043 Y7.452 E1.51982
G1 X2.821 Y7.357 E1.52739 F1800.000
G1 X4.012 Y7.809 E1.53969
G1 X4.857 Y8.763 E1.55199
G1 X5.162 Y10.000 E1.56429
G1 X4.857 Y11.237 E1.57659
G1 X4.012 Y12.191 E1.58889
G1 X2.821 Y12.643 E1.60119
G1 X2.043 Y12.548 E1.60876
G1 X1.879 Y12.712 E1.61099
G1 X0.508 Y11.765 E1.62708
G1 X-0.085 Y10.637 E1.63938
G1 X-0.085 Y9.363 E1.65168
G1 X0.411 Y8.419 E1.66198
M204 S3000
G1 X0.629 Y8.533 F9000.000
M204 S9000
G1 X0.697 Y8.403 E1.66339 F1800.000
G1 X1.850 Y7.608 E1.67691 F1800.000
G1 X1.953 Y7.711 E1.67832
G1 X2.790 Y7.609 E1.68646
G1 X3.868 Y8.018 E1.69759
G1 X4.632 Y8.881 E1.70872
G1 X4.908 Y10.000 E1.71985
G1 X4.632 Y11.119 E1.73097
G1 X3.868 Y11.982 E1.74210
G1 X2.790 Y12.391 E1.75323
G1 X1.953 Y12.289 E1.76137
G1 X1.850 Y12.392 E1.76278
G1 X0.697 Y11.597 E1.77630
G1 X0.162 Y10.576 E1.78743
G1 X0.162 Y9.424 E1.79856
G1 X0.605 Y8.580 E1.80776
M204 S3000
G1 X0.823 Y8.694 F9000.000
M204 S9000
G1 X0.887 Y8.571 E1.80910 F1260.000
G1 X1.821 Y7.927 E1.82005
G1 X1.864 Y7.970 E1.82063
G1 X2.760 Y7.861 E1.82935
G1 X3.664 Y8.204 E1.83869
G1 X3.724 Y8.227 E1.83930 F1260.000
G1 X4.408 Y8.999 E1.84926
G1 X4.654 Y10.000 E1.85921
G1 X4.408 Y11.001 E1.86917
G1 X3.724 Y11.773 E1.87912
G1 X2.760 Y12.139 E1.88908
G1 X1.864 Y12.030 E1.89779
G1 X1.821 Y12.073 E1.89838
G1 X0.887 Y11.429 E1.90933
G1 X0.408 Y10.516 E1.91928
G1 X0.408 Y9.484 E1.92924
G1 X0.798 Y8.741 E1.93735
M204 S3000
G1 F1800.000 E0.43735
G92 E0
G1 X3.702 Y8.153 F9000.000
G1 X2.821 Y-7.357 F9000.000
G1 E1.50000 F1800.000
M204 S9000
G1 X1.556 Y-7.511 E1.51230 F1800.000
G1 X0.508 Y-8.235 E1.52460
G1 X-0.085 Y-9.363 E1.53690
G1 X-0.085 Y-10.637 E1.54920
G1 X0.508 Y-11.765 E1.56150
G1 X1.556 Y-12.489 E1.57380
G1 X2.821 Y-12.643 E1.58610
G1 X3.839 Y-12.256 E1.59661
G1 X4.012 Y-12.191 E1.59840 F1800.000
G1 X4.857 Y-11.237 E1.61070
G1 X5.162 Y-10.000 E1.62300
G1 X4.857 Y-8.763 E1.63530
G1 X4.012 Y-7.809 E1.64760
G1 X2.870 Y-7.376 E1.65939
M204 S3000
G1 X2.790 Y-7.609 F9000.000
M204 S9000
G1 X1.646 Y-7.748 E1.67052 F1800.000
G1 X0.697 Y-8.403 E1.68165
G1 X0.162 Y-9.424 E1.69278
G1 X0.162 Y-10.576 E1.70390
G1 X0.697 Y-11.597 E1.71503
G1 X1.646 Y-12.252 E1.72616
G1 X2.667 Y-12.376 E1.73609
G1 X2.790 Y-12.391 E1.73729 F1800.000
G1 X3.868 Y-11.982 E1.74842
G1 X4.632 Y-11.119 E1.75954
G1 X4.908 Y-10.000 E1.77067
G1 X4.632 Y-8.881 E1.78180
G1 X3.868 Y-8.018 E1.79293
G1 X2.839 Y-7.628 E1.80355
M204 S3000
G1 X2.760 Y-7.861 F9000.000
M204 S9000
G1 X1.736 Y-7.986 E1.81350 F1260.000
G1 X0.887 Y-8.571 E1.82346
G1 X0.408 Y-9.484 E1.83341
G1 X0.408 Y-10.516 E1.84337
G1 X0.887 Y-11.429 E1.85332
G1 X1.736 Y-12.014 E1.86328
G1 X2.760 Y-12.139 E1.87323
G1 X3.664 Y-11.796 E1.88258
G1 X3.724 Y-11.773 E1.88319 F1260.000
G1 X4.408 Y-11.001 E1.89315
G1 X4.654 Y-10.000 E1.90310
G1 X4.408 Y-8.999 E1.91306
G1 X3.724 Y-8.227 E1.92301
G1 X2.809 Y-7.880 E1.93246
M204 S3000
G1 F1800.000 E0.43246
G92 E0
G1 X3.679 Y-11.857 F9000.000
G1 X19.915 Y-10.637 F9000.000
G1 E1.50000 F1800.000
M204 S9000
G1 X20.508 Y-11.765 E1.51230 F1800.000
G1 X21.556 Y-12.489 E1.52460
G1 X22.821 Y-12.643 E1.53690
G1 X23.839 Y-12.256 E1.54741
G1 X24.012 Y-12.191 E1.54920 F1800.000
G1 X24.857 Y-11.237 E1.56150
G1 X25.162 Y-10.000 E1.57380
G1 X24.857 Y-8.763 E1.58610
G1 X24.012 Y-7.809 E1.59840
G1 X22.821 Y-7.357 E1.61070
G1 X21.556 Y-7.511 E1.62300
G1 X20.508 Y-8.235 E1.63530
G1 X19.915 Y-9.363 E1.64760
G1 X19.915 Y-10.585 E1.65939
M204 S3000
G1 X20.162 Y-10.576 F9000.000
M204 S9000
G1 X20.697 Y-11.597 E1.67052 F1800.000
G1 X21.646 Y-12.252 E1.68165
G1 X22.667 Y-12.376 E1.69158
G1 X22.790 Y-12.391 E1.69278 F1800.000
G1 X23.868 Y-11.982 E1.70390
G1 X24.632 Y-11.119 E1.71503
G1 X24.908 Y-10.000 E1.72616
G1 X24.632 Y-8.881 E1.73729
G1 X23.868 Y-8.018 E1.74842
G1 X22.790 Y-7.609 E1.75954
G1 X21.646 Y-7.748 E1.77067
G1 X20.697 Y-8.403 E1.78180
G1 X20.162 Y-9.424 E1.79293
G1 X20.162 Y-10.524 E1.80355
M204 S3000
G1 X20.408 Y-10.516 F9000.000
M204 S9000
G1 X20.887 Y-11.429 E1.81350 F1260.000
G1 X21.736 Y-12.014 E1.82346
G1 X22.760 Y-12.139 E1.83341
G1 X23.664 Y-11.796 E1.84275
G1 X23.724 Y-11.773 E1.84337 F1260.000
G1 X24.408 Y-11.001 E1.85332
G1 X24.654 Y-10.000 E1.86328
G1 X24.408 Y-8.999 E1.87323
G1 X23.724 Y-8.227 E1.88319
G1 X22.760 Y-7.861 E1.89314
G1 X21.736 Y-7.986 E1.90310
G1 X20.887 Y-8.571 E1.91306
G1 X20.408 Y-9.484 E1.92301
G1 X20.408 Y-10.463 E1.93246
M204 S3000
G1 F1800.000 E0.43246
G92 E0
G1 X23.698 Y-11.850 F9000.000
G1 X21.879 Y7.288 F9000.000
G1 E1.50000 F1800.000
M204 S9000
G1 X22.043 Y7.452 E1.50224 F1800.000
G1 X22.821 Y7.357 E1.50980 F1800.000
G1 X24.012 Y7.809 E1.52210
G1 X24.857 Y8.763 E1.53440
G1 X25.162 Y10.000 E1.54670
G1 X24.857 Y11.237 E1.55900
G1 X24.012 Y12.191 E1.57131
G1 X22.821 Y12.643 E1.58360
G1 X22.043 Y12.548 E1.59117
G1 X21.879 Y12.712 E1.59341
G1 X20.508 Y11.765 E1.60950
G1 X19.915 Y10.637 E1.62180
G1 X19.915 Y9.363 E1.63410
G1 X20.508 Y8.235 E1.64640
G1 X21.836 Y7.318 E1.66198
M204 S3000
G1 X21.850 Y7.608 F9000.000
M204 S9000
G1 X21.953 Y7.711 E1.66339 F1800.000
G1 X22.790 Y7.609 E1.67153
G1 X23.868 Y8.018 E1.68265
G1 X24.632 Y8.881 E1.69378
G1 X24.908 Y10.000 E1.70491
G1 X24.632 Y11.119 E1.71604
G1 X23.868 Y11.982 E1.72717
G1 X22.790 Y12.391 E1.73829
G1 X21.953 Y12.289 E1.74643
G1 X21.850 Y12.392 E1.74785
G1 X20.697 Y11.597 E1.76136
G1 X20.162 Y10.576 E1.77249
G1 X20.162 Y9.424 E1.78362
G1 X20.697 Y8.403 E1.79475
G1 X21.807 Y7.637 E1.80776 F1800.000
M204 S3000
G1 X21.821 Y7.927 F9000.000
M204 S9000
G1 X21.864 Y7.970 E1.80834 F1260.000
G1 X22.760 Y7.861 E1.81706
G1 X23.664 Y8.204 E1.82640
G1 X23.724 Y8.227 E1.82701 F1260.000
G1 X24.408 Y8.999 E1.83697
G1 X24.654 Y10.000 E1.84692
G1 X24.408 Y11.001 E1.85688
G1 X23.724 Y11.773 E1.86683
G1 X22.760 Y12.139 E1.87679
G1 X21.864 Y12.030 E1.88550
G1 X21.821 Y12.073 E1.88609
G1 X20.887 Y11.429 E1.89704
G1 X20.408 Y10.516 E1.90699
G1 X20.408 Y9.484 E1.91695
G1 X20.887 Y8.571 E1.92690
G1 X21.778 Y7.957 E1.93735
M204 S3000
G1 X23.706 Y8.157 F9000.000
G1 F1800.000 E0.43735
G92 E0
G1 X-26.857 Y15.857 F9000.000
G1 E1.50000 F1800.000
M204 S9000
G1 X-26.857 Y-15.857 E1.80618 F1800.000
G1 X-3.519 Y-15.857 E2.03149
G1 X21.741 Y-14.400 E2.27575
G1 X22.450 Y-14.359 E2.28261 F1800.000
G1 X23.350 Y-14.271 E2.29134
G1 X24.166 Y-14.023 E2.29958
G1 X24.919 Y-13.620 E2.30782
G1 X25.579 Y-13.079 E2.31606
G1 X26.120 Y-12.419 E2.32430
G1 X26.523 Y-11.666 E2.33254
G1 X26.771 Y-10.849 E2.34078
G1 X26.857 Y-9.968 E2.34933
G1 X26.857 Y-6.622 E2.38163
G1 X11.951 Y-6.622 E2.52554
G1 X10.869 Y-6.442 E2.53613
G1 X9.831 Y-6.085 E2.54673
G1 X8.866 Y-5.563 E2.55732
G1 X8.000 Y-4.889 E2.56792
G1 X7.256 Y-4.081 E2.57851
G1 X6.656 Y-3.163 E2.58910
G1 X6.215 Y-2.158 E2.59970
G1 X5.946 Y-1.094 E2.61029
G1 X5.855 Y0.000 E2.62089
G1 X5.946 Y1.094 E2.63149
G1 X6.215 Y2.158 E2.64208
G1 X6.656 Y3.163 E2.65268
G1 X7.256 Y4.081 E2.66327
G1 X8.000 Y4.889 E2.67387
G1 X8.866 Y5.563 E2.68446
G1 X9.831 Y6.085 E2.69506
G1 X10.869 Y6.442 E2.70565
G1 X11.951 Y6.622 E2.71625
G1 X26.857 Y6.622 E2.86015
G1 X26.857 Y9.968 E2.89245
G1 X26.771 Y10.849 E2.90100
G1 X26.523 Y11.666 E2.90924
G1 X26.120 Y12.419 E2.91748
G1 X25.579 Y13.079 E2.92572
G1 X24.919 Y13.620 E2.93396
G1 X24.166 Y14.023 E2.94220
G1 X23.349 Y14.271 E2.95044
G1 X22.450 Y14.359 E2.95917
G1 X-3.519 Y15.857 E3.21029
G1 X-26.805 Y15.857 E3.43510
M204 S3000
G1 X-26.805 Y16.104 F9000.000
M204 S9000
G1 X-27.104 Y16.104 E3.43798 F1800.000
G1 X-27.104 Y-16.104 E3.74892
G1 X-3.511 Y-16.104 E3.97668 F1800.000
G1 X22.469 Y-14.605 E4.22791
G1 X23.398 Y-14.513 E4.23692
G1 X24.261 Y-14.251 E4.24563
G1 X25.057 Y-13.826 E4.25434
G1 X25.754 Y-13.254 E4.26305
G1 X26.326 Y-12.557 E4.27176
G1 X26.751 Y-11.761 E4.28047
G1 X27.013 Y-10.898 E4.28918
G1 X27.104 Y-9.981 E4.29807
G1 X27.104 Y-6.376 E4.33287
G1 X11.972 Y-6.376 E4.47896
G1 X10.929 Y-6.202 E4.48916
G1 X9.930 Y-5.859 E4.49936
G1 X9.001 Y-5.356 E4.50956
G1 X8.167 Y-4.707 E4.51976
G1 X7.451 Y-3.930 E4.52996
G1 X6.873 Y-3.045 E4.54016
G1 X6.449 Y-2.077 E4.55037
G1 X6.190 Y-1.053 E4.56057
G1 X6.102 Y0.000 E4.57077
G1 X6.190 Y1.053 E4.58097
G1 X6.449 Y2.077 E4.59117
G1 X6.873 Y3.045 E4.60137
G1 X7.451 Y3.930 E4.61157
G1 X8.167 Y4.707 E4.62177
G1 X9.001 Y5.356 E4.63197
G1 X9.930 Y5.859 E4.64217
G1 X10.929 Y6.202 E4.65237
G1 X11.972 Y6.376 E4.66257
G1 X27.104 Y6.376 E4.80866
G1 X27.104 Y9.981 E4.84346
G1 X27.013 Y10.898 E4.85236
G1 X26.751 Y11.761 E4.86107
G1 X26.326 Y12.557 E4.86978
G1 X25.754 Y13.254 E4.87849
G1 X25.057 Y13.826 E4.88719
G1 X24.261 Y14.251 E4.89590
G1 X23.398 Y14.513 E4.90461
G1 X22.469 Y14.605 E4.91362
G1 X-3.511 Y16.104 E5.16486
G1 X-26.752 Y16.104 E5.38923
M204 S3000
G1 X-26.752 Y16.350 F9000.000
M204 S9000
G1 X-27.350 Y16.350 E5.39500 F1260.000
G1 X-27.350 Y-16.350 E5.71069
G1 X-3.504 Y-16.350 E5.94089
G1 X21.769 Y-14.892 E6.18529
G1 X22.488 Y-14.850 E6.19225 F1260.000
G1 X23.446 Y-14.756 E6.20154
G1 X24.356 Y-14.480 E6.21072
G1 X25.194 Y-14.032 E6.21989
G1 X25.929 Y-13.429 E6.22907
G1 X26.532 Y-12.694 E6.23825
G1 X26.980 Y-11.856 E6.24743
G1 X27.256 Y-10.946 E6.25660
G1 X27.350 Y-9.993 E6.26585
G1 X27.350 Y-6.130 E6.30315
G1 X11.992 Y-6.130 E6.45141
G1 X10.990 Y-5.962 E6.46122
G1 X10.029 Y-5.632 E6.47103
G1 X9.136 Y-5.149 E6.48083
G1 X8.334 Y-4.525 E6.49064
G1 X7.646 Y-3.778 E6.50045
G1 X7.091 Y-2.927 E6.51025
G1 X6.683 Y-1.997 E6.52006
G1 X6.433 Y-1.012 E6.52987
G1 X6.349 Y0.000 E6.53967
G1 X6.433 Y1.012 E6.54948
G1 X6.683 Y1.997 E6.55929
G1 X7.091 Y2.927 E6.56909
G1 X7.646 Y3.778 E6.57890
G1 X8.334 Y4.525 E6.58871
G1 X9.136 Y5.149 E6.59851
G1 X10.029 Y5.632 E6.60832
G1 X10.990 Y5.962 E6.61813
G1 X11.992 Y6.130 E6.62793
G1 X27.350 Y6.130 E6.77620
G1 X27.350 Y9.993 E6.81350
G1 X27.256 Y10.946 E6.82275
G1 X26.980 Y11.856 E6.83192
G1 X26.532 Y12.694 E6.84110
G1 X25.929 Y13.429 E6.85028
G1 X25.194 Y14.032 E6.85945
G1 X24.356 Y14.480 E6.86863
G1 X23.446 Y14.756 E6.87781
G1 X22.488 Y14.850 E6.88710
G1 X-3.504 Y16.350 E7.13845
G1 X-26.700 Y16.350 E7.36239
M204 S3000
G1 F1800.000 E5.86239
G92 E0
G1 X22.016 Y-14.644 F9000.000
G1 X23.709 Y-13.996 F9000.000
G1 E1.50000 F1800.000
M204 S9000
G1 X26.496 Y-11.209 E1.53805 F2100.000
G1 X26.623 Y-10.732 E1.54281
G1 X23.232 Y-14.123 E1.58910
G1 X22.845 Y-14.161 E1.59286
G1 X26.661 Y-10.345 E1.64496
G1 X26.699 Y-9.957 E1.64872
G1 X22.457 Y-14.199 E1.70664
G1 X22.085 Y-14.221 E1.71023
G1 X23.905 Y-12.401 E1.73509
M204 S3000
G1 X23.342 Y-12.614 F9000.000
M204 S9000
G1 X21.714 Y-14.243 E1.75732 F2100.000
G1 X21.343 Y-14.264 E1.76091
G1 X22.806 Y-12.801 E1.78089
G1 X22.495 Y-12.763 E1.78392
G1 X20.972 Y-14.286 E1.80472
G1 X20.601 Y-14.307 E1.80830
G1 X22.183 Y-12.725 E1.82990
G1 X21.871 Y-12.687 E1.83294
G1 X20.230 Y-14.328 E1.85535
G1 X19.859 Y-14.350 E1.85893
G1 X21.559 Y-12.649 E1.88215
G1 X21.332 Y-12.527 E1.88465
G1 X19.488 Y-14.371 E1.90983
G1 X19.117 Y-14.393 E1.91341
G1 X21.125 Y-12.384 E1.94083
G1 X20.918 Y-12.241 E1.94326
G1 X18.746 Y-14.414 E1.97292
G1 X18.375 Y-14.435 E1.97651
G1 X20.711 Y-12.099 E2.00842
G1 X20.505 Y-11.956 E2.01084
G1 X18.004 Y-14.457 E2.04499
G1 X17.633 Y-14.478 E2.04858
G1 X20.334 Y-11.776 E2.08546
G1 X20.214 Y-11.547 E2.08796
G1 X17.262 Y-14.500 E2.12827
G1 X16.891 Y-14.521 E2.13186
G1 X20.094 Y-11.318 E2.17559
G1 X19.973 Y-11.089 E2.17809
G1 X16.520 Y-14.542 E2.22525
G1 X16.149 Y-14.564 E2.22883
G1 X19.853 Y-10.859 E2.27941
G1 X19.757 Y-10.606 E2.28203
G1 X15.778 Y-14.585 E2.33636
G1 X15.406 Y-14.607 E2.33994
G1 X19.757 Y-10.256 E2.39934
G1 X19.757 Y-9.907 E2.40271
G1 X15.035 Y-14.628 E2.46717
G1 X14.664 Y-14.649 E2.47076
G1 X19.757 Y-9.557 E2.54029
G1 X19.885 Y-9.079 E2.54507
G1 X14.293 Y-14.671 E2.62142
G1 X13.922 Y-14.692 E2.62501
G1 X20.272 Y-8.343 E2.71169
M204 S3000
G1 X20.717 Y-7.897 F9000.000
M204 S9000
G1 X21.834 Y-6.781 E2.72694 F2100.000
G1 X22.183 Y-6.781 E2.73031
G1 X21.621 Y-7.343 E2.73799
G1 X22.019 Y-7.295 E2.74186
G1 X22.533 Y-6.781 E2.74889
G1 X22.883 Y-6.781 E2.75226
G1 X22.417 Y-7.247 E2.75863
G1 X22.815 Y-7.199 E2.76250
G1 X23.232 Y-6.781 E2.76820
G1 X23.582 Y-6.781 E2.77157
G1 X23.078 Y-7.285 E2.77846
G1 X23.331 Y-7.381 E2.78108
G1 X23.932 Y-6.781 E2.78928
G1 X24.281 Y-6.781 E2.79265
G1 X23.585 Y-7.477 E2.80216
G1 X23.838 Y-7.574 E2.80478
G1 X24.631 Y-6.781 E2.81561
G1 X24.980 Y-6.781 E2.81898
G1 X24.091 Y-7.670 E2.83112
G1 X24.260 Y-7.850 E2.83351
G1 X25.330 Y-6.781 E2.84811
G1 X25.680 Y-6.781 E2.85148
G1 X24.425 Y-8.036 E2.86862
G1 X24.589 Y-8.221 E2.87101
G1 X26.029 Y-6.781 E2.89068
G1 X26.379 Y-6.781 E2.89405
G1 X24.753 Y-8.407 E2.91625
G1 X24.917 Y-8.592 E2.91864
G1 X26.699 Y-6.811 E2.94296
G1 X26.699 Y-7.160 E2.94634
G1 X25.035 Y-8.824 E2.96905
G1 X25.104 Y-9.104 E2.97183
G1 X26.699 Y-7.510 E2.99360
G1 X26.699 Y-7.859 E2.99698
G1 X25.174 Y-9.385 E3.01780
G1 X25.243 Y-9.665 E3.02059
G1 X26.699 Y-8.209 E3.04047
G1 X26.699 Y-8.559 E3.04384
G1 X25.312 Y-9.946 E3.06278
G1 X25.233 Y-10.374 E3.06698
G1 X26.699 Y-8.908 E3.08699
G1 X26.699 Y-9.258 E3.09037
