; generated by Slic3r 1.2.0 on 2014-09-09 at 20:05:39

; external perimeters extrusion width = 0.40mm
; perimeters extrusion width = 0.56mm
; infill extrusion width = 0.56mm
; solid infill extrusion width = 0.56mm
; top infill extrusion width = 0.56mm
; support material extrusion width = 0.40mm

G21 ; set units to millimeters
G28 ; home all axes
M42 ; Turn on the e3d extruder heatsink cooling fan
M140 S70 ; start heating bed
G92 E0 ; reset extruder
G1 X0 Y0 Z100 F4000 ; move down a bit
G1 X0 Y-90 Z0.7 F4000 ; move half way along the front edge, and close to bed
M104 S210; start heating extruder
M190 S70 ; wait for bed to reach temp
M109 S210 ; wait for extruder to reach temp
G4 P5000 ; wait another 5 seconds for nozzle length to stabilise etc
G1 E7 F100; extrude 10 mm of filament
G1 X10 F12000 ; move 50 mm towards the origin as fast as firmware permits
G1 Z1 ; lift nozzle to 1 mm ready to begin main sequence
G92 E0 ; reset extruder

G90 ; use absolute coordinates
M83 ; use relative distances for extrusion
G1 Z0.250 F15000.000
G1 X1.232 Y21.475 F15000.000
G1 X-3.500 Y21.746 E0.29189 F3000.000
G1 X-27.500 Y21.746 E1.47810
G1 X-29.500 Y21.350 E0.12557
G1 X-31.198 Y20.221 E0.12557
G1 X-32.337 Y18.531 E0.12557
G1 X-32.746 Y16.500 E0.12757
G1 X-32.746 Y-16.500 E2.03238
G1 X-32.350 Y-18.500 E0.12557
G1 X-31.221 Y-20.198 E0.12557
G1 X-29.531 Y-21.337 E0.12557
G1 X-27.500 Y-21.746 E0.12757
G1 X-3.198 Y-21.738 E1.49671
G1 X23.014 Y-20.221 E1.61704 F3000.000
G1 X23.990 Y-20.125 E0.06038
G1 X24.998 Y-19.924 E0.06332
G1 X25.936 Y-19.640 E0.06037
G1 X26.887 Y-19.246 E0.06333
G1 X27.751 Y-18.784 E0.06038
G1 X28.606 Y-18.213 E0.06335
G1 X29.364 Y-17.591 E0.06036
G1 X30.091 Y-16.864 E0.06331
G1 X30.713 Y-16.106 E0.06037
G1 X31.284 Y-15.251 E0.06334
G1 X31.746 Y-14.387 E0.06037
G1 X32.140 Y-13.436 E0.06335
G1 X32.424 Y-12.498 E0.06036
G1 X32.625 Y-11.490 E0.06333
G1 X32.718 Y-10.541 E0.05870
G1 X32.746 Y-10.000 E0.03338
G1 X32.721 Y10.514 E1.26342
G1 X32.625 Y11.490 E0.06038
G1 X32.424 Y12.498 E0.06333
G1 X32.140 Y13.436 E0.06036
G1 X31.746 Y14.387 E0.06335
G1 X31.284 Y15.251 E0.06037
G1 X30.713 Y16.106 E0.06335
G1 X30.091 Y16.864 E0.06036
G1 X29.364 Y17.591 E0.06331
G1 X28.606 Y18.213 E0.06036
G1 X27.751 Y18.784 E0.06335
G1 X26.887 Y19.246 E0.06038
G1 X25.936 Y19.640 E0.06335
G1 X24.998 Y19.924 E0.06036
G1 X23.990 Y20.125 E0.06331
G1 X22.802 Y20.238 E0.07349
G1 X1.292 Y21.472 E1.32696
G10 ; retract
G1 X-9.481 Y3.143 F15000.000
G11 ; unretract
G1 X-21.523 Y3.143 E0.74163 F2400.000
G1 X-21.523 Y-3.143 E0.38710
G1 X-9.481 Y-3.143 E0.74163
G1 X-9.481 Y3.083 E0.38341
G1 X-9.728 Y2.896 F15000.000
G1 X-21.277 Y2.896 E0.71129 F2400.000
G1 X-21.277 Y-2.896 E0.35676
G1 X-9.728 Y-2.896 E0.71129
G1 X-9.728 Y2.836 E0.35306
G1 X-9.974 Y2.650 F15000.000
G1 X-21.030 Y2.650 E0.68094 F1920.000
G1 X-21.030 Y-2.650 E0.32641
G1 X-9.974 Y-2.650 E0.68094
G1 X-9.974 Y2.590 E0.32272
G1 X-9.974 Y3.050 F15000.000
G1 X1.879 Y7.288 F15000.000
G1 X2.043 Y7.452 E0.01426 F2400.000
G1 X2.821 Y7.357 E0.04829
G1 X4.012 Y7.809 E0.07846
G1 X4.857 Y8.763 E0.07847
G1 X5.162 Y10.000 E0.07846
G1 X4.857 Y11.237 E0.07846
G1 X4.012 Y12.191 E0.07847
G1 X2.821 Y12.643 E0.07846
G1 X2.043 Y12.548 E0.04828
G1 X1.879 Y12.712 E0.01426
G1 X0.508 Y11.765 E0.10262
G1 X-0.085 Y10.637 E0.07847
G1 X-0.085 Y9.363 E0.07847
G1 X0.508 Y8.235 E0.07847
G1 X1.829 Y7.322 E0.09893
G1 X1.850 Y7.608 F15000.000
G1 X1.953 Y7.711 E0.00900 F2400.000
G1 X2.790 Y7.609 E0.05193
G1 X3.868 Y8.018 E0.07098
G1 X4.632 Y8.881 E0.07099
G1 X4.908 Y10.000 E0.07099
G1 X4.632 Y11.119 E0.07099
G1 X3.868 Y11.982 E0.07099
G1 X2.790 Y12.391 E0.07099
G1 X1.953 Y12.289 E0.05193
G1 X1.850 Y12.392 E0.00900
G1 X0.697 Y11.597 E0.08624
G1 X0.162 Y10.576 E0.07099
G1 X0.162 Y9.424 E0.07099
G1 X0.697 Y8.403 E0.07099
G1 X1.800 Y7.642 E0.08254 F2400.000
G1 X1.821 Y7.927 F15000.000
G1 X1.864 Y7.970 E0.00375 F1920.000
G1 X2.760 Y7.861 E0.05558
G1 X3.664 Y8.204 E0.05959
G1 X3.724 Y8.227 E0.00391 F1920.000
G1 X4.408 Y8.999 E0.06351
G1 X4.654 Y10.000 E0.06351
G1 X4.408 Y11.001 E0.06351
G1 X3.724 Y11.773 E0.06351
G1 X2.760 Y12.139 E0.06351
G1 X1.864 Y12.030 E0.05558
G1 X1.821 Y12.073 E0.00375
G1 X0.887 Y11.429 E0.06985
G1 X0.408 Y10.516 E0.06351
G1 X0.408 Y9.484 E0.06351
G1 X0.887 Y8.571 E0.06351
G1 X1.771 Y7.961 E0.06616
G1 X3.706 Y8.157 F15000.000
G1 X2.821 Y-7.357 F15000.000
G1 X1.556 Y-7.511 E0.07847 F2400.000
G1 X0.508 Y-8.235 E0.07847
G1 X-0.085 Y-9.363 E0.07847
G1 X-0.085 Y-10.637 E0.07847
G1 X0.508 Y-11.765 E0.07847
G1 X1.556 Y-12.489 E0.07847
G1 X2.821 Y-12.643 E0.07847
G1 X3.839 Y-12.256 E0.06707
G1 X4.012 Y-12.191 E0.01140 F2400.000
G1 X4.857 Y-11.237 E0.07847
G1 X5.162 Y-10.000 E0.07847
G1 X4.857 Y-8.763 E0.07846
G1 X4.012 Y-7.809 E0.07847
G1 X2.877 Y-7.379 E0.07477
G1 X2.790 Y-7.609 F15000.000
G1 X1.646 Y-7.748 E0.07099 F2400.000
G1 X0.697 Y-8.403 E0.07099
G1 X0.162 Y-9.424 E0.07099
G1 X0.162 Y-10.576 E0.07099
G1 X0.697 Y-11.597 E0.07099
G1 X1.646 Y-12.252 E0.07099
G1 X2.667 Y-12.376 E0.06334
G1 X2.790 Y-12.391 E0.00765 F2400.000
G1 X3.868 Y-11.982 E0.07098
G1 X4.632 Y-11.119 E0.07099
G1 X4.908 Y-10.000 E0.07099
G1 X4.632 Y-8.881 E0.07099
G1 X3.868 Y-8.018 E0.07099
G1 X2.846 Y-7.631 E0.06729
G1 X2.760 Y-7.861 F15000.000
G1 X1.736 Y-7.986 E0.06351 F1920.000
G1 X0.887 Y-8.571 E0.06351
G1 X0.408 Y-9.484 E0.06351
G1 X0.408 Y-10.516 E0.06351
G1 X0.887 Y-11.429 E0.06351
G1 X1.736 Y-12.014 E0.06351
G1 X2.760 Y-12.139 E0.06351
G1 X3.664 Y-11.796 E0.05959
G1 X3.724 Y-11.773 E0.00392 F1920.000
G1 X4.408 Y-11.001 E0.06351
G1 X4.654 Y-10.000 E0.06351
G1 X4.408 Y-8.999 E0.06351
G1 X3.724 Y-8.227 E0.06351
G1 X2.816 Y-7.883 E0.05981
G10 ; retract
G1 X3.679 Y-11.857 F15000.000
G1 X19.915 Y-10.637 F15000.000
G11 ; unretract
G1 X20.508 Y-11.765 E0.07847 F2400.000
G1 X21.556 Y-12.489 E0.07847
G1 X22.821 Y-12.643 E0.07847
G1 X23.839 Y-12.256 E0.06707
G1 X24.012 Y-12.191 E0.01140 F2400.000
G1 X24.857 Y-11.237 E0.07847
G1 X25.162 Y-10.000 E0.07846
G1 X24.857 Y-8.763 E0.07846
G1 X24.012 Y-7.809 E0.07847
G1 X22.821 Y-7.357 E0.07846
G1 X21.556 Y-7.511 E0.07847
G1 X20.508 Y-8.235 E0.07846
G1 X19.915 Y-9.363 E0.07847
G1 X19.915 Y-10.577 E0.07477
G1 X20.162 Y-10.576 F15000.000
G1 X20.697 Y-11.597 E0.07099 F2400.000
G1 X21.646 Y-12.252 E0.07099
G1 X22.667 Y-12.376 E0.06334
G1 X22.790 Y-12.391 E0.00765 F2400.000
G1 X23.868 Y-11.982 E0.07098
G1 X24.632 Y-11.119 E0.07099
G1 X24.908 Y-10.000 E0.07099
G1 X24.632 Y-8.881 E0.07098
G1 X23.868 Y-8.018 E0.07099
G1 X22.790 Y-7.609 E0.07098
G1 X21.646 Y-7.748 E0.07099
G1 X20.697 Y-8.403 E0.07099
G1 X20.162 Y-9.424 E0.07099
G1 X20.162 Y-10.516 E0.06729
G1 X20.408 Y-10.516 F15000.000
G1 X20.887 Y-11.429 E0.06351 F1920.000
G1 X21.736 Y-12.014 E0.06351
G1 X22.760 Y-12.139 E0.06351
G1 X23.664 Y-11.796 E0.05959
G1 X23.724 Y-11.773 E0.00391 F1920.000
G1 X24.408 Y-11.001 E0.06351
G1 X24.654 Y-10.000 E0.06351
G1 X24.408 Y-8.999 E0.06351
G1 X23.724 Y-8.227 E0.06351
G1 X22.760 Y-7.861 E0.06351
G1 X21.736 Y-7.986 E0.06351
G1 X20.887 Y-8.571 E0.06351
G1 X20.408 Y-9.484 E0.06351
G1 X20.408 Y-10.456 E0.05981
G10 ; retract
G1 X23.698 Y-11.850 F15000.000
G1 X21.879 Y7.288 F15000.000
G11 ; unretract
G1 X22.043 Y7.452 E0.01426 F2400.000
G1 X22.821 Y7.357 E0.04828
G1 X24.012 Y7.809 E0.07846
G1 X24.857 Y8.763 E0.07847
G1 X25.162 Y10.000 E0.07846
G1 X24.857 Y11.237 E0.07846
G1 X24.012 Y12.191 E0.07847
G1 X22.821 Y12.643 E0.07846
G1 X22.043 Y12.548 E0.04828
G1 X21.879 Y12.712 E0.01426
G1 X20.508 Y11.765 E0.10262
G1 X19.915 Y10.637 E0.07847
G1 X19.915 Y9.363 E0.07847
G1 X20.508 Y8.235 E0.07847
G1 X21.829 Y7.322 E0.09892
G1 X21.850 Y7.608 F15000.000
G1 X21.953 Y7.711 E0.00900 F2400.000
G1 X22.790 Y7.609 E0.05193
G1 X23.868 Y8.018 E0.07098
G1 X24.632 Y8.881 E0.07099
G1 X24.908 Y10.000 E0.07099
G1 X24.632 Y11.119 E0.07099
G1 X23.868 Y11.982 E0.07099
G1 X22.790 Y12.391 E0.07098
G1 X21.953 Y12.289 E0.05193
G1 X21.850 Y12.392 E0.00900
G1 X20.697 Y11.597 E0.08624
G1 X20.162 Y10.576 E0.07099
G1 X20.162 Y9.424 E0.07099
G1 X20.697 Y8.403 E0.07099
G1 X21.800 Y7.642 E0.08254 F2400.000
G1 X21.821 Y7.927 F15000.000
G1 X21.864 Y7.970 E0.00375 F1920.000
G1 X22.760 Y7.861 E0.05558
G1 X23.664 Y8.204 E0.05959
G1 X23.724 Y8.227 E0.00391 F1920.000
G1 X24.408 Y8.999 E0.06351
G1 X24.654 Y10.000 E0.06351
G1 X24.408 Y11.001 E0.06351
G1 X23.724 Y11.773 E0.06351
G1 X22.760 Y12.139 E0.06351
G1 X21.864 Y12.030 E0.05558
G1 X21.821 Y12.073 E0.00375
G1 X20.887 Y11.429 E0.06985
G1 X20.408 Y10.516 E0.06351
G1 X20.408 Y9.484 E0.06351
G1 X20.887 Y8.571 E0.06351
G1 X21.771 Y7.961 E0.06616
G1 X23.706 Y8.157 F15000.000
G1 X26.857 Y6.622 F15000.000
G1 X26.857 Y9.968 E0.20609 F2400.000
G1 X26.771 Y10.849 E0.05453
G1 X26.523 Y11.666 E0.05257
G1 X26.120 Y12.419 E0.05257
G1 X25.579 Y13.079 E0.05257
G1 X24.919 Y13.620 E0.05257
G1 X24.166 Y14.023 E0.05257
G1 X23.349 Y14.271 E0.05257
G1 X22.450 Y14.359 E0.05567
G1 X-3.519 Y15.857 E1.60199
G1 X-26.857 Y15.857 E1.43737
G1 X-26.857 Y-15.857 E1.95322
G1 X-3.519 Y-15.857 E1.43737
G1 X22.450 Y-14.359 E1.60199
G1 X23.350 Y-14.271 E0.05567
G1 X24.166 Y-14.023 E0.05256
G1 X24.919 Y-13.620 E0.05257
G1 X25.579 Y-13.079 E0.05257
G1 X26.120 Y-12.419 E0.05257
G1 X26.523 Y-11.666 E0.05257
G1 X26.771 Y-10.849 E0.05257
G1 X26.857 Y-9.968 E0.05453
G1 X26.857 Y-6.622 E0.20609
G1 X11.951 Y-6.622 E0.91802
G1 X10.869 Y-6.442 E0.06759
G1 X9.831 Y-6.085 E0.06759
G1 X8.866 Y-5.563 E0.06759
G1 X8.000 Y-4.889 E0.06759
G1 X7.256 Y-4.081 E0.06758
G1 X6.656 Y-3.163 E0.06759
G1 X6.215 Y-2.158 E0.06759
G1 X5.946 Y-1.094 E0.06759
G1 X5.855 Y0.000 E0.06759
G1 X5.946 Y1.094 E0.06759
G1 X6.215 Y2.158 E0.06759
G1 X6.656 Y3.163 E0.06759
G1 X7.256 Y4.081 E0.06759
G1 X8.000 Y4.889 E0.06758
G1 X8.866 Y5.563 E0.06759
G1 X9.831 Y6.085 E0.06759
G1 X10.869 Y6.442 E0.06759
G1 X11.951 Y6.622 E0.06759
G1 X26.797 Y6.622 E0.91433
G1 X27.104 Y6.376 F15000.000
G1 X27.104 Y9.981 E0.22200 F2400.000
G1 X27.013 Y10.898 E0.05676
G1 X26.751 Y11.761 E0.05555
G1 X26.326 Y12.557 E0.05556
G1 X25.754 Y13.254 E0.05555
G1 X25.057 Y13.826 E0.05555
G1 X24.261 Y14.251 E0.05556
G1 X23.398 Y14.513 E0.05555
G1 X22.469 Y14.605 E0.05747
G1 X-3.511 Y16.104 E1.60273
G1 X-27.104 Y16.104 E1.45298
G1 X-27.104 Y-16.104 E1.98356
G1 X-3.511 Y-16.104 E1.45298
G1 X22.469 Y-14.605 E1.60273
G1 X23.398 Y-14.513 E0.05747
G1 X24.261 Y-14.251 E0.05555
G1 X25.057 Y-13.826 E0.05556
G1 X25.754 Y-13.254 E0.05555
G1 X26.326 Y-12.557 E0.05555
G1 X26.751 Y-11.761 E0.05556
G1 X27.013 Y-10.898 E0.05555
G1 X27.104 Y-9.981 E0.05676
G1 X27.104 Y-6.376 E0.22200
G1 X11.972 Y-6.376 E0.93194
G1 X10.929 Y-6.202 E0.06507
G1 X9.930 Y-5.859 E0.06508
G1 X9.001 Y-5.356 E0.06507
G1 X8.167 Y-4.707 E0.06508
G1 X7.451 Y-3.930 E0.06507
G1 X6.873 Y-3.045 E0.06508
G1 X6.449 Y-2.077 E0.06508
G1 X6.190 Y-1.053 E0.06507
G1 X6.102 Y0.000 E0.06508
G1 X6.190 Y1.053 E0.06508
G1 X6.449 Y2.077 E0.06507
G1 X6.873 Y3.045 E0.06508
G1 X7.451 Y3.930 E0.06508
G1 X8.167 Y4.707 E0.06507
G1 X9.001 Y5.356 E0.06508
G1 X9.930 Y5.859 E0.06507
G1 X10.929 Y6.202 E0.06508
G1 X11.972 Y6.376 E0.06507
G1 X27.044 Y6.376 E0.92824
G1 X27.350 Y6.130 F15000.000
G1 X27.350 Y9.993 E0.23792 F1920.000
G1 X27.256 Y10.946 E0.05900
G1 X26.980 Y11.856 E0.05854
G1 X26.532 Y12.694 E0.05855
G1 X25.929 Y13.429 E0.05854
G1 X25.194 Y14.032 E0.05854
G1 X24.356 Y14.480 E0.05855
G1 X23.446 Y14.756 E0.05854
G1 X22.488 Y14.850 E0.05927
G1 X-3.504 Y16.350 E1.60348
G1 X-27.350 Y16.350 E1.46859
G1 X-27.350 Y-16.350 E2.01390
G1 X-3.504 Y-16.350 E1.46859
G1 X22.488 Y-14.850 E1.60348
G1 X23.446 Y-14.756 E0.05927
G1 X24.356 Y-14.480 E0.05854
G1 X25.194 Y-14.032 E0.05855
G1 X25.929 Y-13.429 E0.05854
G1 X26.532 Y-12.694 E0.05854
G1 X26.980 Y-11.856 E0.05855
G1 X27.256 Y-10.946 E0.05854
G1 X27.350 Y-9.993 E0.05901
G1 X27.350 Y-6.130 E0.23792
G1 X11.992 Y-6.130 E0.94585
G1 X10.990 Y-5.962 E0.06256
G1 X10.029 Y-5.632 E0.06256
G1 X9.136 Y-5.149 E0.06256
G1 X8.334 Y-4.525 E0.06256
G1 X7.646 Y-3.778 E0.06256
G1 X7.091 Y-2.927 E0.06256
G1 X6.683 Y-1.997 E0.06256
G1 X6.433 Y-1.012 E0.06256
G1 X6.349 Y0.000 E0.06256
G1 X6.433 Y1.012 E0.06256
G1 X6.683 Y1.997 E0.06256
G1 X7.091 Y2.927 E0.06256
G1 X7.646 Y3.778 E0.06256
G1 X8.334 Y4.525 E0.06256
G1 X9.136 Y5.149 E0.06256
G1 X10.029 Y5.632 E0.06256
G1 X10.990 Y5.962 E0.06256
G1 X11.992 Y6.130 E0.06256
G1 X27.290 Y6.130 E0.94216
G1 X27.150 Y6.476 F15000.000
G1 X26.655 Y6.781 F15000.000
G1 X26.699 Y6.824 E0.00380 F3000.000
G1 X26.699 Y7.174 E0.02153
G1 X26.305 Y6.781 E0.03426
G1 X25.956 Y6.781 E0.02153
G1 X26.699 Y7.524 E0.06471
G1 X26.699 Y7.873 E0.02153
G1 X25.606 Y6.781 E0.09516
G1 X25.257 Y6.781 E0.02153
G1 X26.699 Y8.223 E0.12561
G1 X26.699 Y8.573 E0.02153
G1 X24.907 Y6.781 E0.15606
G1 X24.557 Y6.781 E0.02153
G1 X26.699 Y8.922 E0.18651
G1 X26.699 Y9.272 E0.02153
G1 X24.208 Y6.781 E0.21696
G1 X23.858 Y6.781 E0.02153
G1 X26.699 Y9.621 E0.24741
G1 X25.095 Y9.067 F15000.000
G1 X26.635 Y10.607 E0.13412 F3000.000
G1 X26.587 Y10.908 E0.01881
G1 X25.210 Y9.531 E0.11997
G1 X25.324 Y9.995 E0.02943
G1 X26.506 Y11.176 E0.10292
G1 X26.424 Y11.445 E0.01726
G1 X25.257 Y10.277 E0.10167
G1 X25.188 Y10.558 E0.01779
G1 X26.327 Y11.697 E0.09920
G1 X26.205 Y11.924 E0.01591
G1 X25.119 Y10.838 E0.09461
G1 X25.049 Y11.119 E0.01779
G1 X26.083 Y12.152 E0.09003
G1 X25.954 Y12.372 E0.01573
G1 X24.951 Y11.370 E0.08731
G1 X24.787 Y11.555 E0.01525
G1 X25.796 Y12.564 E0.08789
G1 X25.638 Y12.756 E0.01530
G1 X24.623 Y11.741 E0.08846
G1 X24.458 Y11.926 E0.01525
G1 X25.468 Y12.936 E0.08794
G1 X25.292 Y13.109 E0.01523
G1 X24.294 Y12.111 E0.08690
G1 X24.130 Y12.297 E0.01525
G1 X25.100 Y13.267 E0.08448
G1 X24.908 Y13.424 E0.01530
G1 X23.890 Y12.407 E0.08864
G1 X23.637 Y12.503 E0.01670
G1 X24.694 Y13.561 E0.09213
G1 X24.467 Y13.682 E0.01591
G1 X23.383 Y12.599 E0.09437
G1 X23.130 Y12.695 E0.01670
G1 X24.239 Y13.804 E0.09660
G1 X23.994 Y13.909 E0.01639
G1 X22.876 Y12.791 E0.09738
G1 X22.498 Y12.763 E0.02332
G1 X23.726 Y13.991 E0.10691
G1 X23.458 Y14.072 E0.01726
G1 X22.101 Y12.715 E0.11821
G1 X21.925 Y12.889 E0.01523
G1 X23.165 Y14.129 E0.10800
G1 X20.949 Y12.263 F15000.000
G1 X22.847 Y14.161 E0.16530 F3000.000
G1 X22.529 Y14.192 E0.01970
G1 X15.118 Y6.781 E0.64550
G1 X14.768 Y6.781 E0.02153
G1 X22.202 Y14.215 E0.64747
G1 X21.871 Y14.234 E0.02039
G1 X14.418 Y6.781 E0.64913
G1 X14.069 Y6.781 E0.02153
G1 X21.541 Y14.253 E0.65079
G1 X21.210 Y14.272 E0.02039
G1 X13.719 Y6.781 E0.65245
G1 X13.370 Y6.781 E0.02153
G1 X20.880 Y14.291 E0.65411
G1 X20.549 Y14.310 E0.02039
G1 X13.020 Y6.781 E0.65577
G1 X12.670 Y6.781 E0.02153
G1 X20.219 Y14.329 E0.65743
G1 X19.888 Y14.348 E0.02039
G1 X12.321 Y6.781 E0.65909
G1 X11.971 Y6.781 E0.02153
G1 X19.558 Y14.367 E0.66075
G1 X19.227 Y14.386 E0.02039
G1 X11.558 Y6.717 E0.66794
G1 X11.138 Y6.647 E0.02620
G1 X18.896 Y14.405 E0.67570
G1 X18.566 Y14.424 E0.02039
G1 X10.689 Y6.548 E0.68605
G1 X10.157 Y6.365 F15000.000
G1 X18.235 Y14.443 E0.70363 F3000.000
G1 X17.905 Y14.462 E0.02039
G1 X9.563 Y6.120 E0.72657
G1 X8.801 Y5.708 F15000.000
G1 X17.574 Y14.482 E0.76414 F3000.000
G1 X17.244 Y14.501 E0.02039
G1 X-12.956 Y-15.699 E2.63029
G1 X-12.606 Y-15.699 E0.02153
G1 X6.865 Y3.772 E1.69586
G1 X6.387 Y2.945 F15000.000
G1 X-12.256 Y-15.699 E1.62384 F3000.000
G1 X-11.907 Y-15.699 E0.02153
G1 X6.114 Y2.322 E1.56959
G1 X5.968 Y1.826 E0.03187
G1 X-11.557 Y-15.699 E1.52637
G1 X-11.208 Y-15.699 E0.02153
G1 X5.849 Y1.358 E1.48559
G1 X5.773 Y0.932 E0.02661
G1 X-10.858 Y-15.699 E1.44853
G1 X-10.508 Y-15.699 E0.02153
G1 X5.742 Y0.551 E1.41533
G1 X5.710 Y0.170 E0.02356
G1 X-10.159 Y-15.699 E1.38213
G1 X-9.809 Y-15.699 E0.02153
G1 X5.711 Y-0.179 E1.35175
G1 X5.738 Y-0.502 E0.01995
G1 X-9.459 Y-15.699 E1.32362
G1 X-9.110 Y-15.699 E0.02153
G1 X5.764 Y-0.825 E1.29550
G1 X5.795 Y-1.144 E0.01974
G1 X-8.760 Y-15.699 E1.26771
G1 X-8.411 Y-15.699 E0.02153
G1 X5.865 Y-1.423 E1.24341
G1 X5.936 Y-1.702 E0.01772
G1 X-8.061 Y-15.699 E1.21911
G1 X-7.711 Y-15.699 E0.02153
G1 X6.007 Y-1.981 E1.19482
G1 X9.790 Y-6.239 F15000.000
G1 X5.095 Y-10.933 E0.40888 F3000.000
G1 X5.210 Y-10.469 E0.02943
G1 X9.560 Y-6.119 E0.37890
G1 X9.333 Y-5.996 E0.01589
G1 X5.324 Y-10.005 E0.34918
